X: 2087
Q: "Reel."
M: C
L: 1/8
K: C
E |\
cGEG cdec | Aagf edc :|\
uf |\
ecgc acge | fdad bdaf |
ecgc acge | fagf eccf |\
ecgc acge | fede fgac |\


